X: 598
T:Fantasia 8 Spirituoso
M:12/8
L:1/8
C:Telemann
N:Posted to the woodenflute mailing list November 2002
Z:Clive Catterall
K:Eminor
E3 F3 GEB GEc|AFc AFB GEG BEB|efg ^c2 a def B2 g|
^cde ^A2 f B3 c3|dBf dBg e^cg ecf|dBd fdf b^c'd' B2 A|
^GBe dcB abc' A2 =G|FAd cBA gfg Bdg|gfg ceg gfg Aag|
fad' z3 G3 A3|BGd BGe cAe cAd|BGB dBd g=fe f2 d'|
edc d2 b cea B2 g|A2 =f G2 e =FAd E2 c|DcB cBA E^GB z3|
A3 B3 cAe cA=f|dB=f dBe cAc ece|aea c'3 b^ga eag|
ABc FGA ^D2 f B2 A|e^de GBe ede Ace|e^de Ffe d^cB z3|
e3 f3 geb gec'|afc' afb geg bgb|e'2 g f2 d' egc' d2 b| c2 a B2 g Agf gfe|
B^de fga ege Bfd|z z E cBc ^D2 c B^AB|z z "p" E cBc ^D2 c B^AB|
z ab c'ba gfe Bf^d|EBe B^df efg Bdf|Gbe Bf^d E3 z3||
<end>
<start>
